X: 43470
T: Yellow Flowers, The
R: reel
M: 4/4
K: Bminor
FBdf e2dc|de2c AEGA|FBdf e2dc|da2g gffd|
FBdf e2dc|de2c AEGA|F2fg e2dc|da2g gffd|
c3d/e/ d2(B2|B)dBA GAdA|efg f2 cag|deed cA|
c3c dc(B2|B)dBA GAdA|efg f2 cag|deed cA|

